; HEADER_BLOCK_START
; generated by Creality_Print V6.3.0.3420 on 2025-10-02 at 09:36:15
; total layer number: 7
; filament_density: 1.24,1.24,1.24,1.24
; filament_diameter: 1.75,1.75,1.75,1.75
; max_z_height: 2.00
; creality_uuid: 7e075643-6713-4005-b945-b6726444b450
; HEADER_BLOCK_END

; MINX = 100.08
; MINY = 100.30
; MINZ = 0.00
; MAXX = 140.15
; MAXY = 140.40
; MAXZ = 2.00

; multicolor_method = 0 
; THUMBNAIL_BLOCK_START

;
; THUMBNAIL_BLOCK_END

; THUMBNAIL_BLOCK_START

;
; THUMBNAIL_BLOCK_END

; external perimeters extrusion width = 0.42mm
; perimeters extrusion width = 0.45mm
; infill extrusion width = 0.45mm
; solid infill extrusion width = 0.42mm
; top infill extrusion width = 0.42mm
; first layer extrusion width = 0.50mm

; external perimeters extrusion width = 0.42mm
; perimeters extrusion width = 0.45mm
; infill extrusion width = 0.45mm
; solid infill extrusion width = 0.42mm
; top infill extrusion width = 0.42mm
; first layer extrusion width = 0.50mm

; external perimeters extrusion width = 0.42mm
; perimeters extrusion width = 0.45mm
; infill extrusion width = 0.45mm
; solid infill extrusion width = 0.42mm
; top infill extrusion width = 0.42mm
; first layer extrusion width = 0.50mm

; external perimeters extrusion width = 0.42mm
; perimeters extrusion width = 0.45mm
; infill extrusion width = 0.45mm
; solid infill extrusion width = 0.42mm
; top infill extrusion width = 0.42mm
; first layer extrusion width = 0.50mm

; EXECUTABLE_BLOCK_START
EXCLUDE_OBJECT_DEFINE NAME=Assembly_id_0_copy_0 CENTER=120.114,120.349 POLYGON=[[100.08,100.321],[120.148,100.303],[140.148,100.303],[140.148,120.303],[140.134,140.368],[120.173,140.395],[100.173,140.395],[100.08,120.321],[100.08,100.321]]
M73 P0 R54
M106 S0
M106 P2 S0
; max_print_temp = 50,220
;TYPE:Custom
START_PRINT EXTRUDER_TEMP=220 BED_TEMP=50
T1
M204 S2000
M104 S220
G1 Z3 F600
M83
G92 E0
M73 P3 R52
G1 Z1 F600
G90
G21
M83 ; use relative distances for extrusion

M104 S220 ; set nozzle temperature
G1 E-.8 F2400
G1 Z.1 F9000
M106 S0
;LAYER_CHANGE
;Z:0.2
;HEIGHT:0.2
;BEFORE_LAYER_CHANGE
;0.2
G92 E0

;AFTER_LAYER_CHANGE
;0.2
;_SET_FAN_SPEED_CHANGING_LAYER
SET_VELOCITY_LIMIT ACCEL=1000 ACCEL_TO_DECEL=1000
SET_VELOCITY_LIMIT SQUARE_CORNER_VELOCITY=20
; printing object Assembly id:0 copy 0
EXCLUDE_OBJECT_START NAME=Assembly_id_0_copy_0
G1 X120.384 Y120.618 Z.5 F9000
G1 Z.1
G1 E.8 F2400
;TYPE:Outer wall
;WIDTH:0.499999
G1 X139.734 Y120.618 E.69865
G1 X139.734 Y139.968 E.69865
G1 X120.384 Y139.968 E.69865
G1 X120.384 Y120.63 E.69822
G1 X120.461 Y120.638
G1 E-.8
;WIPE_START
G1 X122.384 Y120.628
;WIPE_END
G1 X130.016 Y120.687 Z.5 F9000
G1 X138.67 Y120.755 Z.5
G1 Z.1
G1 E.8 F2400
;TYPE:Bottom surface
;WIDTH:0.501256
G1 F3600
G1 X139.391 Y121.476 E.03691
G1 X139.391 Y122.124 E.02347
G1 X138.228 Y120.96 E.05957
G1 X137.58 Y120.96 E.02347
G1 X139.391 Y122.772 E.09276
G1 X139.391 Y123.42 E.02347
G1 X136.932 Y120.96 E.12595
G1 X136.283 Y120.96 E.02347
G1 X139.391 Y124.068 E.15914
G1 X139.391 Y124.717 E.02347
G1 X135.635 Y120.96 E.19232
G1 X134.987 Y120.96 E.02347
G1 X139.391 Y125.365 E.22551
G1 X139.391 Y126.013 E.02347
G1 X134.339 Y120.96 E.2587
G1 X133.691 Y120.96 E.02347
G1 X139.391 Y126.661 E.29189
G1 X139.391 Y127.309 E.02347
G1 X133.042 Y120.96 E.32508
G1 X132.394 Y120.96 E.02347
G1 X139.391 Y127.957 E.35827
G1 X139.391 Y128.606 E.02347
G1 X131.746 Y120.96 E.39145
G1 X131.098 Y120.96 E.02347
G1 X139.391 Y129.254 E.42464
G1 X139.391 Y129.902 E.02347
G1 X130.45 Y120.96 E.45783
G1 X129.801 Y120.96 E.02347
G1 X139.391 Y130.55 E.49102
G1 X139.391 Y131.198 E.02347
G1 X129.153 Y120.96 E.52421
G1 X128.505 Y120.96 E.02347
G1 X139.391 Y131.847 E.5574
G1 X139.391 Y132.495 E.02347
G1 X127.857 Y120.96 E.59058
G1 X127.209 Y120.96 E.02347
G1 X139.391 Y133.143 E.62377
G1 X139.391 Y133.791 E.02347
G1 X126.561 Y120.96 E.65696
G1 X125.912 Y120.96 E.02347
G1 X139.391 Y134.439 E.69015
G1 X139.391 Y135.087 E.02347
G1 X125.264 Y120.96 E.72334
G1 X124.616 Y120.96 E.02347
G1 X139.391 Y135.736 E.75653
G1 X139.391 Y136.384 E.02347
G1 X123.968 Y120.96 E.78971
G1 X123.32 Y120.96 E.02347
G1 X139.391 Y137.032 E.8229
G1 X139.391 Y137.68 E.02347
G1 X122.671 Y120.96 E.85609
G1 X122.023 Y120.96 E.02347
G1 X139.391 Y138.328 E.88928
M73 P4 R52
G1 X139.391 Y138.977 E.02347
G1 X121.375 Y120.96 E.92247
G1 X120.727 Y120.96 E.02347
G1 X139.391 Y139.625 E.95565
G1 X138.743 Y139.625 E.02347
G1 X120.727 Y121.609 E.92246
G1 X120.727 Y122.257 E.02347
G1 X138.095 Y139.625 E.88927
G1 X137.447 Y139.625 E.02347
G1 X120.727 Y122.905 E.85609
G1 X120.727 Y123.553 E.02347
G1 X136.799 Y139.625 E.8229
G1 X136.15 Y139.625 E.02347
G1 X120.727 Y124.201 E.78971
G1 X120.727 Y124.849 E.02347
G1 X135.502 Y139.625 E.75652
G1 X134.854 Y139.625 E.02347
G1 X120.727 Y125.498 E.72333
G1 X120.727 Y126.146 E.02347
G1 X134.206 Y139.625 E.69014
G1 X133.558 Y139.625 E.02347
G1 X120.727 Y126.794 E.65696
G1 X120.727 Y127.442 E.02347
G1 X132.909 Y139.625 E.62377
G1 X132.261 Y139.625 E.02347
G1 X120.727 Y128.09 E.59058
G1 X120.727 Y128.739 E.02347
G1 X131.613 Y139.625 E.55739
G1 X130.965 Y139.625 E.02347
G1 X120.727 Y129.387 E.5242
G1 X120.727 Y130.035 E.02347
G1 X130.317 Y139.625 E.49101
G1 X129.669 Y139.625 E.02347
G1 X120.727 Y130.683 E.45783
G1 X120.727 Y131.331 E.02347
G1 X129.02 Y139.625 E.42464
G1 X128.372 Y139.625 E.02347
G1 X120.727 Y131.98 E.39145
G1 X120.727 Y132.628 E.02347
G1 X127.724 Y139.625 E.35826
G1 X127.076 Y139.625 E.02347
G1 X120.727 Y133.276 E.32507
G1 X120.727 Y133.924 E.02347
G1 X126.428 Y139.625 E.29188
G1 X125.779 Y139.625 E.02347
G1 X120.727 Y134.572 E.2587
G1 X120.727 Y135.22 E.02347
G1 X125.131 Y139.625 E.22551
G1 X124.483 Y139.625 E.02347
G1 X120.727 Y135.869 E.19232
G1 X120.727 Y136.517 E.02347
G1 X123.835 Y139.625 E.15913
G1 X123.187 Y139.625 E.02347
G1 X120.727 Y137.165 E.12594
G1 X120.727 Y137.813 E.02347
G1 X122.538 Y139.625 E.09275
G1 X121.89 Y139.625 E.02347
G1 X120.727 Y138.461 E.05957
G1 X120.727 Y139.11 E.02347
G1 X121.448 Y139.83 E.03691
; stop printing object Assembly id:0 copy 0
G1 E-.8 F2400
;WIPE_START
G1 F3600
G1 X120.727 Y139.11
G1 X120.727 Y138.461
G1 X120.962 Y138.696
;WIPE_END
;filament end gcode 
G2 Z0.5 I0.86 J0.86 P1 F10000 ; spiral lift a little from second lift
G1 X42 Y180 F30000
G1 Z0.1 F600
M106 S0
T2
M104 S220 ; set nozzle temperature
;filament start gcode
 
M104 S220
; printing object Assembly id:0 copy 0
EXCLUDE_OBJECT_END NAME=Assembly_id_0_copy_0
EXCLUDE_OBJECT_START NAME=Assembly_id_0_copy_0
G1 X120.398 Y120.053 Z.5 F9000
G1 Z.5
G1 Z.1
G1 E.8 F2400
;TYPE:Outer wall
;WIDTH:0.499999
G1 X120.398 Y100.703 E.69865
G1 X139.748 Y100.703 E.69865
G1 X139.748 Y120.053 E.69865
G1 X120.41 Y120.053 E.69822
G1 X120.419 Y119.976
G1 E-.8
;WIPE_START
G1 X120.409 Y118.053
;WIPE_END
G1 X125.965 Y112.82 Z.5 F9000
G1 X138.684 Y100.84 Z.5
G1 Z.1
G1 E.8 F2400
;TYPE:Bottom surface
;WIDTH:0.501256
G1 F3600
G1 X139.405 Y101.561 E.03691
G1 X139.405 Y102.21 E.02347
G1 X138.242 Y101.046 E.05957
G1 X137.594 Y101.046 E.02347
G1 X139.405 Y102.858 E.09276
M73 P7 R50
G1 X139.405 Y103.506 E.02347
G1 X136.945 Y101.046 E.12595
G1 X136.297 Y101.046 E.02347
G1 X139.405 Y104.154 E.15914
G1 X139.405 Y104.802 E.02347
M73 P8 R50
G1 X135.649 Y101.046 E.19232
G1 X135.001 Y101.046 E.02347
G1 X139.405 Y105.451 E.22551
G1 X139.405 Y106.099 E.02347
G1 X134.353 Y101.046 E.2587
G1 X133.704 Y101.046 E.02347
G1 X139.405 Y106.747 E.29189
G1 X139.405 Y107.395 E.02347
G1 X133.056 Y101.046 E.32508
G1 X132.408 Y101.046 E.02347
G1 X139.405 Y108.043 E.35827
G1 X139.405 Y108.691 E.02347
G1 X131.76 Y101.046 E.39145
G1 X131.112 Y101.046 E.02347
G1 X139.405 Y109.34 E.42464
G1 X139.405 Y109.988 E.02347
G1 X130.464 Y101.046 E.45783
M73 P8 R49
G1 X129.815 Y101.046 E.02347
G1 X139.405 Y110.636 E.49102
G1 X139.405 Y111.284 E.02347
G1 X129.167 Y101.046 E.52421
G1 X128.519 Y101.046 E.02347
G1 X139.405 Y111.932 E.5574
G1 X139.405 Y112.581 E.02347
G1 X127.871 Y101.046 E.59058
G1 X127.223 Y101.046 E.02347
G1 X139.405 Y113.229 E.62377
G1 X139.405 Y113.877 E.02347
G1 X126.574 Y101.046 E.65696
G1 X125.926 Y101.046 E.02347
G1 X139.405 Y114.525 E.69015
G1 X139.405 Y115.173 E.02347
G1 X125.278 Y101.046 E.72334
G1 X124.63 Y101.046 E.02347
G1 X139.405 Y115.821 E.75653
G1 X139.405 Y116.47 E.02347
G1 X123.982 Y101.046 E.78971
G1 X123.333 Y101.046 E.02347
G1 X139.405 Y117.118 E.8229
G1 X139.405 Y117.766 E.02347
G1 X122.685 Y101.046 E.85609
G1 X122.037 Y101.046 E.02347
G1 X139.405 Y118.414 E.88928
G1 X139.405 Y119.062 E.02347
G1 X121.389 Y101.046 E.92247
G1 X120.741 Y101.046 E.02347
G1 X139.405 Y119.711 E.95565
G1 X138.757 Y119.711 E.02347
G1 X120.741 Y101.694 E.92246
G1 X120.741 Y102.343 E.02347
G1 X138.109 Y119.711 E.88927
G1 X137.461 Y119.711 E.02347
G1 X120.741 Y102.991 E.85609
G1 X120.741 Y103.639 E.02347
G1 X136.812 Y119.711 E.8229
G1 X136.164 Y119.711 E.02347
G1 X120.741 Y104.287 E.78971
G1 X120.741 Y104.935 E.02347
G1 X135.516 Y119.711 E.75652
G1 X134.868 Y119.711 E.02347
G1 X120.741 Y105.583 E.72333
G1 X120.741 Y106.232 E.02347
G1 X134.22 Y119.711 E.69014
G1 X133.571 Y119.711 E.02347
G1 X120.741 Y106.88 E.65696
G1 X120.741 Y107.528 E.02347
G1 X132.923 Y119.711 E.62377
G1 X132.275 Y119.711 E.02347
G1 X120.741 Y108.176 E.59058
G1 X120.741 Y108.824 E.02347
G1 X131.627 Y119.711 E.55739
G1 X130.979 Y119.711 E.02347
G1 X120.741 Y109.473 E.5242
G1 X120.741 Y110.121 E.02347
G1 X130.331 Y119.711 E.49101
G1 X129.682 Y119.711 E.02347
G1 X120.741 Y110.769 E.45783
G1 X120.741 Y111.417 E.02347
G1 X129.034 Y119.711 E.42464
G1 X128.386 Y119.711 E.02347
G1 X120.741 Y112.065 E.39145
G1 X120.741 Y112.714 E.02347
G1 X127.738 Y119.711 E.35826
G1 X127.09 Y119.711 E.02347
G1 X120.741 Y113.362 E.32507
G1 X120.741 Y114.01 E.02347
G1 X126.441 Y119.711 E.29188
G1 X125.793 Y119.711 E.02347
G1 X120.741 Y114.658 E.2587
G1 X120.741 Y115.306 E.02347
G1 X125.145 Y119.711 E.22551
G1 X124.497 Y119.711 E.02347
G1 X120.741 Y115.954 E.19232
G1 X120.741 Y116.603 E.02347
G1 X123.849 Y119.711 E.15913
G1 X123.201 Y119.711 E.02347
G1 X120.741 Y117.251 E.12594
G1 X120.741 Y117.899 E.02347
G1 X122.552 Y119.711 E.09275
G1 X121.904 Y119.711 E.02347
G1 X120.741 Y118.547 E.05957
G1 X120.741 Y119.195 E.02347
G1 X121.462 Y119.916 E.03691
; stop printing object Assembly id:0 copy 0
G1 E-.8 F2400
;WIPE_START
G1 F3600
G1 X120.741 Y119.195
G1 X120.741 Y118.547
G1 X120.976 Y118.782
;WIPE_END
;filament end gcode 
G2 Z0.5 I0.86 J0.86 P1 F10000 ; spiral lift a little from second lift
G1 X42 Y180 F30000
G1 Z0.1 F600
M106 S0
T3
M104 S220 ; set nozzle temperature
;filament start gcode
 
M104 S220
; printing object Assembly id:0 copy 0
EXCLUDE_OBJECT_END NAME=Assembly_id_0_copy_0
EXCLUDE_OBJECT_START NAME=Assembly_id_0_copy_0
G1 X119.83 Y120.071 Z.5 F9000
G1 Z.5
G1 Z.1
G1 E.8 F2400
;TYPE:Outer wall
;WIDTH:0.499999
G1 X100.545 Y120.071 E.6963
G1 X100.48 Y119.985 E.0039
G1 X100.48 Y100.721 E.69554
G1 X119.83 Y100.721 E.69865
G1 X119.83 Y120.059 E.69822
G1 X119.752 Y120.05
G1 E-.8
;WIPE_START
G1 X117.83 Y120.06
;WIPE_END
G1 X118.201 Y112.437 Z.5 F9000
G1 X118.766 Y100.858 Z.5
G1 Z.1
G1 E.8 F2400
;TYPE:Bottom surface
;WIDTH:0.501256
G1 F3600
G1 X119.487 Y101.579 E.03691
G1 X119.487 Y102.227 E.02347
G1 X118.323 Y101.063 E.05957
G1 X117.675 Y101.063 E.02347
G1 X119.487 Y102.875 E.09276
G1 X119.487 Y103.523 E.02347
G1 X117.027 Y101.063 E.12595
G1 X116.379 Y101.063 E.02347
G1 X119.487 Y104.171 E.15914
G1 X119.487 Y104.82 E.02347
G1 X115.731 Y101.063 E.19232
G1 X115.083 Y101.063 E.02347
G1 X119.487 Y105.468 E.22551
G1 X119.487 Y106.116 E.02347
G1 X114.434 Y101.063 E.2587
G1 X113.786 Y101.063 E.02347
G1 X119.487 Y106.764 E.29189
G1 X119.487 Y107.412 E.02347
G1 X113.138 Y101.063 E.32508
G1 X112.49 Y101.063 E.02347
G1 X119.487 Y108.061 E.35827
G1 X119.487 Y108.709 E.02347
G1 X111.842 Y101.063 E.39145
G1 X111.193 Y101.063 E.02347
M73 P12 R47
G1 X119.487 Y109.357 E.42464
G1 X119.487 Y110.005 E.02347
G1 X110.545 Y101.063 E.45783
G1 X109.897 Y101.063 E.02347
G1 X119.487 Y110.653 E.49102
G1 X119.487 Y111.301 E.02347
G1 X109.249 Y101.063 E.52421
G1 X108.601 Y101.063 E.02347
G1 X119.487 Y111.95 E.5574
G1 X119.487 Y112.598 E.02347
G1 X107.953 Y101.063 E.59058
G1 X107.304 Y101.063 E.02347
G1 X119.487 Y113.246 E.62377
G1 X119.487 Y113.894 E.02347
G1 X106.656 Y101.063 E.65696
G1 X106.008 Y101.063 E.02347
G1 X119.487 Y114.542 E.69015
G1 X119.487 Y115.191 E.02347
G1 X105.36 Y101.063 E.72334
G1 X104.712 Y101.063 E.02347
G1 X119.487 Y115.839 E.75653
G1 X119.487 Y116.487 E.02347
G1 X104.063 Y101.063 E.78971
G1 X103.415 Y101.063 E.02347
G1 X119.487 Y117.135 E.8229
G1 X119.487 Y117.783 E.02347
G1 X102.767 Y101.063 E.85609
G1 X102.119 Y101.063 E.02347
G1 X119.487 Y118.432 E.88928
G1 X119.487 Y119.08 E.02347
G1 X101.471 Y101.063 E.92247
G1 X100.823 Y101.064 E.02347
G1 X119.487 Y119.728 E.95565
G1 X118.839 Y119.728 E.02347
G1 X100.823 Y101.712 E.92246
G1 X100.823 Y102.36 E.02347
G1 X118.191 Y119.728 E.88927
G1 X117.542 Y119.728 E.02347
G1 X100.823 Y103.008 E.85609
G1 X100.823 Y103.656 E.02347
G1 X116.894 Y119.728 E.8229
G1 X116.246 Y119.728 E.02347
G1 X100.823 Y104.304 E.78971
G1 X100.823 Y104.953 E.02347
G1 X115.598 Y119.728 E.75652
G1 X114.95 Y119.728 E.02347
G1 X100.823 Y105.601 E.72333
G1 X100.823 Y106.249 E.02347
G1 X114.301 Y119.728 E.69014
G1 X113.653 Y119.728 E.02347
G1 X100.823 Y106.897 E.65696
G1 X100.823 Y107.545 E.02347
G1 X113.005 Y119.728 E.62377
G1 X112.357 Y119.728 E.02347
G1 X100.823 Y108.194 E.59058
G1 X100.823 Y108.842 E.02347
G1 X111.709 Y119.728 E.55739
G1 X111.06 Y119.728 E.02347
G1 X100.823 Y109.49 E.5242
G1 X100.823 Y110.138 E.02347
G1 X110.412 Y119.728 E.49101
G1 X109.764 Y119.728 E.02347
G1 X100.823 Y110.786 E.45783
G1 X100.823 Y111.434 E.02347
G1 X109.116 Y119.728 E.42464
G1 X108.468 Y119.728 E.02347
G1 X100.823 Y112.083 E.39145
G1 X100.823 Y112.731 E.02347
G1 X107.82 Y119.728 E.35826
G1 X107.171 Y119.728 E.02347
G1 X100.823 Y113.379 E.32507
G1 X100.823 Y114.027 E.02347
G1 X106.523 Y119.728 E.29188
G1 X105.875 Y119.728 E.02347
G1 X100.823 Y114.675 E.2587
G1 X100.823 Y115.324 E.02347
G1 X105.227 Y119.728 E.22551
G1 X104.579 Y119.728 E.02347
G1 X100.823 Y115.972 E.19232
G1 X100.823 Y116.62 E.02347
G1 X103.93 Y119.728 E.15913
G1 X103.282 Y119.728 E.02347
G1 X100.823 Y117.268 E.12594
G1 X100.823 Y117.916 E.02347
G1 X102.634 Y119.728 E.09275
G1 X101.986 Y119.728 E.02347
G1 X100.823 Y118.564 E.05957
G1 X100.823 Y119.213 E.02347
G1 X101.543 Y119.934 E.03691
; stop printing object Assembly id:0 copy 0
G1 E-.8 F2400
;WIPE_START
G1 F3600
G1 X100.823 Y119.213
G1 X100.823 Y118.564
G1 X101.058 Y118.8
;WIPE_END
;filament end gcode 
G2 Z0.5 I0.86 J0.86 P1 F10000 ; spiral lift a little from second lift
G1 X42 Y180 F30000
G1 Z0.1 F600
M106 S0
T0
M104 S220 ; set nozzle temperature
;filament start gcode
 
M104 S220
; printing object Assembly id:0 copy 0
EXCLUDE_OBJECT_END NAME=Assembly_id_0_copy_0
EXCLUDE_OBJECT_START NAME=Assembly_id_0_copy_0
G1 X119.884 Y120.645 Z.5 F9000
G1 Z.5
G1 Z.1
G1 E.8 F2400
;TYPE:Outer wall
;WIDTH:0.499999
G1 X119.884 Y139.995 E.69865
G1 X100.573 Y139.995 E.69724
G1 X100.573 Y120.645 E.69865
G1 X119.872 Y120.645 E.69681
G1 X119.863 Y120.722
G1 E-.8
;WIPE_START
G1 X119.873 Y122.645
;WIPE_END
G1 X118.821 Y120.782 Z.5 F9000
G1 Z.1
G1 E.8 F2400
;TYPE:Bottom surface
;WIDTH:0.50079
G1 F3600
G1 X119.541 Y121.502 E.03683
G1 X119.541 Y122.15 E.02342
G1 X118.38 Y120.988 E.05943
G1 X117.732 Y120.988 E.02342
G1 X119.541 Y122.797 E.09255
G1 X119.541 Y123.445 E.02342
G1 X117.084 Y120.988 E.12567
G1 X116.437 Y120.988 E.02342
G1 X119.541 Y124.092 E.15879
G1 X119.541 Y124.74 E.02342
G1 X115.789 Y120.988 E.19191
G1 X115.142 Y120.988 E.02342
G1 X119.541 Y125.387 E.22503
G1 X119.541 Y126.035 E.02342
G1 X114.494 Y120.988 E.25815
G1 X113.847 Y120.988 E.02342
G1 X119.541 Y126.682 E.29127
G1 X119.541 Y127.33 E.02342
G1 X113.199 Y120.988 E.32439
G1 X112.552 Y120.988 E.02342
G1 X119.541 Y127.978 E.35751
G1 X119.541 Y128.625 E.02342
G1 X111.904 Y120.988 E.39064
G1 X111.257 Y120.988 E.02342
G1 X119.541 Y129.273 E.42376
G1 X119.541 Y129.92 E.02342
G1 X110.609 Y120.988 E.45688
M73 P16 R45
G1 X109.962 Y120.988 E.02342
